X: 9268
T: Danbury Hill
R: jig
M: 6/8
K: Dminor
FE|:DFA B2A|GEC A2G|FEF GFE|DED ^C=B,A,|
DFA B2A|GEC A2G|FEF GFE|1 D3 DFE:|2 D3 DFA||
|:dz ^cz cz|=Bz Bz Az|ABA GFE|ABA GFE|
dz ^cz cz|=Bz Bz Az|ABA GFE|1 D3 DFA:|2 D3 DFE||

